Adwaita++-Light/panel/16/bluetooth-paired.svg

<svg height="16" width="16" xmlns="http://www.w3.org/2000/svg">
  <path d="m8 1c-2.77 0-5 2.345-5 5.25v3.5c0 2.905 2.23 5.25 5 5.25v-2.265625l-.1796875.150391a.50005.50005 0 0 1 -.8203125-.384766v-3.4394531l-1.2128906.8496093a.50065948.50065948 0 0 1 -.5742188-.8203124l1.5566406-1.0898438-1.5566406-1.0898438a.50065948.50065948 0 0 1 .5742188-.8203124l1.2128906.8496093v-3.4394531a.50005.50005 0 0 1 .4980469-.5.50005.50005 0 0 1 .3222656.1152344l2.9999995 2.5a.50005.50005 0 0 1 -.033203.7949218l-2.271484 1.5898438.8691406.6074219c.5042604-.9455243 1.4767384-1.6074219 2.6152344-1.6074219.352911 0 .686419.0744726 1 .1894531v-.9394531c0-2.905-2.23-5.25-5-5.25zm0 3.5683594v2.5703125l1.6757812-1.1738281zm4 3.4316406c-1.108 0-2 .911251-2 2.03125v.96875h-1v4h6v-4h-1v-.96875c0-1.119999-.892-2.0312499-2-2.03125zm-4 .8613281v2.1386719c.0000552-.552262.4477381-.999945 1-1h.0136719c.0016374-.1362519.0257491-.2665639.0449219-.3984375zm4 .1386719c.554 0 1 .440001 1 1v1h-2v-1c0-.559999.446-1 1-1z" fill="#444"/>
</svg>

<svg xmlns="http://www.w3.org/2000/svg" width="16" height="16" version="1.1">
 <defs>
  <style id="current-color-scheme" type="text/css">
   .ColorScheme-Text { color:#444444; } .ColorScheme-Highlight { color:#4285f4; }
  </style>
 </defs>
 <path style="fill:currentColor" class="ColorScheme-Text" d="M 8 1 C 5.23 1 3 3.345 3 6.25 L 3 9.75 C 3 12.655 5.23 15 8 15 L 8 12.734375 L 7.8203125 12.884766 A 0.50005 0.50005 0 0 1 7 12.5 L 7 9.0605469 L 5.7871094 9.9101562 A 0.50065948 0.50065948 0 0 1 5.2128906 9.0898438 L 6.7695312 8 L 5.2128906 6.9101562 A 0.50065948 0.50065948 0 0 1 5.7871094 6.0898438 L 7 6.9394531 L 7 3.5 A 0.50005 0.50005 0 0 1 7.4980469 3 A 0.50005 0.50005 0 0 1 7.8203125 3.1152344 L 10.820312 5.6152344 A 0.50005 0.50005 0 0 1 10.787109 6.4101562 L 8.515625 8 L 9.3847656 8.6074219 C 9.889026 7.6618976 10.861504 7 12 7 C 12.352911 7 12.686419 7.0744726 13 7.1894531 L 13 6.25 C 13 3.345 10.77 1 8 1 z M 8 4.5683594 L 8 7.1386719 L 9.6757812 5.9648438 L 8 4.5683594 z M 12 8 C 10.892 8 10 8.911251 10 10.03125 L 10 11 L 9 11 L 9 15 L 15 15 L 15 11 L 14 11 L 14 10.03125 C 14 8.911251 13.108 8.0000001 12 8 z M 8 8.8613281 L 8 11 C 8.0000552 10.447738 8.4477381 10.000055 9 10 L 9.0136719 10 C 9.0153093 9.8637481 9.039421 9.7334361 9.0585938 9.6015625 L 8 8.8613281 z M 12 9 C 12.554 9 13 9.440001 13 10 L 13 11 L 11 11 L 11 10 C 11 9.440001 11.446 9 12 9 z"/>
</svg>
